X:138
T: Es reiten zwei Herzliebchen (2-24), S. 60
N: K1112
O: Luxemburg
S: KINTZELE, Guillaume: An der Ucht, Bd. 2, Luxemburg 1927]
N: in der Quelle mit einer 2. Stimme versehen
R: Liebe, Tod]
M: 3/4
L: 1/8
K: F
C2 | F3EFA | G3FG2 | A3ABA | G3z
FA | c2c2cB | A3GFF | G2F2C2 | F2A2
c2 | d3cBd | c3BAA | B2A2G2 | F4

@@@ Tune index: 8192
